X: 7
T: 6. O DEAR MOTHER MY TOES ARE SORE
B: Sam Bayard, "Hill Country Tunes" 1944 #6
S: Played by Irvin Yaugher Jr, Mt Independence, PA, Oct 19 1943. Learned from his great-uncle.
R: jig
%Q: "Mod."
Z: 2010 John Chambers <jc:trillian.mit.edu>
M: 6/8
L: 1/8
K: Am
He2^f edB | GA>B AGE | CD2 ^/F/E/DE | A3 Az2 :|
|: e2^f g2a | ge^c dz_/a | e>_/ae dBG | ABA GEC | D3 ^/F/E/DE | A3 Az2 :|
P: VAR:
"a."^g2 || "b."e |]

%%sep 2 1 500
%%sep 1 1 500

